**kern	**kern	**dynam
*part1	*part1	*part1
*staff2	*staff1	*
*I"Piano	*	*
*clefF4	*clefG2	*
*k[f#c#]	*k[f#c#]	*
=1	=1	=1
2B 2d	2d 2b 2dd	mf
4G 4B	4d 4g 4b	.
=	=	=
!	!	!LO:DY:a
[2.F# [2.A	[2.d [2.a	>]
=	=	=
2.F#]) 2.A]	2.d]) 2.a]	.
=	=	=
!	!	!LO:DY:a
8qEE/	.	p
2.BB 2.D 2.G	(2.B 2.d 2.g	.
=	=	=
8qAA/	.	.
*	*^	*
2C# 2G 2B	2g 2b	2.c#	.
4E 4G	4e 4g	.	.
*	*v	*v	*
=	=	=
[2.DD [2.AA [2.D	[2.F# [2.A [2.d [2.f#	.
=	=	=
2.DD] 2.AA] 2.D]	2.F#]) 2.A] 2.d] 2.f#]	.
=	=	=
!	!	!LO:DY:a
8DDL	2.d 2.f#	<
8AA	.	.
8D	.	.
8E	.	.
8F#	.	.
8G#XJ	.	[[
=	=	=
2.CC# 2.AA 2.C#	2.E 2.A 2.c# 2.e	.
=	=	=
*-	*-	*-
!!!system-decoration: {(s1,s2)}
